X:174
T: Money in Both Pockets
N: O'Farrell's Pocket Companion v.2 (Sky ed. p.88)
N: "Irish"
M: 6/8
L: 1/8
R: jig
Q: 320
K: D
A|d2F FEF|ABA AGF|d2F FEF|ABA gfe|
d2F FEF|DED AGF|EFE EFA|BcB B2 :|
c|d2f afd|cde ecA|d2f afd|g3 f2g|
agf bag|agf edc|d2B AFA|BcB B2 :|
c|d3 dAF|DFA AGF|d2d dAF|DFA gfe|
d3 dAF|DFA AGF|EFE EFA|BcB B2 :|
